!!!OTL: Der Hecker (139), S. 313
!!!id: T0308
**kern
*clefG2
*k[b-]
*F:
{8c
8c
=1
4f
4f
8g
8g
=2
4a
4a}
=3
{8f
8a
=4
4cc
4cc
8dd
8dd
=5
4cc
4r
8cc
8cc
=6
8dd
8b-
4dd}
=7
{4dd
=8
8cc
8a
4cc
8cc
8dd
=9
4cc
4g
8b-
8b-
=10
4a
4cc}
=11
{8ff
8ff
=12
8dd
8b-
4dd
4dd
=13
8cc
8a
4cc
8cc
8dd
=14
4cc
4g
8a
8g
=15
4f}
4r
==
*-
!!!minrhy: 8
!!!meters: 3/4 ]  ZZ[4
!!!cut: Der Hecker (139), S. 313
!!!reg: Luxemburg
!!!trd: Singendes Volk, Esch-Alzette 1937, posth.
!!!rhy1: XX  X_X_XX  X_X_
!!!rhy2: XX  X_X_XX  X_0_XX  XXX_
!!!key: T0308  08  F 3/4 ]  ZZ[4
!!!mod: SECHSTONSKALA DUR ?]  AMBITUS[11
!!!kad: 3651
!!!akz: 13_556_553_6551_
!!!fot: 'a__b__c__d__
!!!for: 'a__b__c__d__
!!!fok: '/__/__Wd_Sd_
!! PHRAS[AUFTAKTIG]
!!!fkt: historische, Kriegs- und Soldatenlieder
!!!bem: Consdorf, Liederheft (1848-1851)
!! THILL, Mathias:
!! PR[39] 2K[9] 2G[16] 3K[0] 3G[2] 4A[5] 4Ü[0] 5A[2] 6K[0] 6G[0]
!! 7K[0] 7G[0] 8A[0] MEHR[0] SI[34] ABS[44] SR[25] SP[9]
!! ST[12] 2k[5] 2g[14] 3k[2] 3g[0] 4d[5] 4ü[0] 5d[2] 6k[0] 6g[0]
!! 7k[0] 7g[0] 8d[0] mehr[0] si[27] dm[+7] sr[18] sp[9]
!! 1F[65] 2F[22] 3F[0] 4F[0] LF[0] 2P[12] 3P[0] 4P[0] TRI[0] DF[3] AB[49]
!! TF[0] U3K[0] U3[0] U4[0] U4Ü[0] U5[4] U6K[0] U6[0] U7K[0] U7[2]
!! N1[20] N2K[0] N2[18] N3K[0] N3[24] N4[11] N4Ü[0] N5[11] N6K[0] N6[9]
!!!n7k: 0] N7[0] O1[0] O2K[0] O2[0] O3K[0] O3[0] HÖ[0
